X: 26542
T: Micheal's Welcome To Charlie
R: reel
M: 4/4
K: Dmajor
(3DDD AD (3DDD BD|(3DDD dD fD af|g2 eg fe df|ed Bd AF EF|(3DDD AD (3DDD BD|
(3DDD dD fD af|g2 eg fe dB|AF EF D2 A,2|(3DDD AD (3DDD BD|
(3DDD dD fD af|g2 eg fe df|ed Bd AF EF|(3DDD AD (3DDD BD|
(3DDD dD fD af|g2 eg fe dB|AF EF2< D2B|Ad dc de fg|
af bf af ef|de fa ef dB|A2 dB AF EF|(3DDD AD (3DDD BD|
(3DDD dD fD af|g2 eg fe dB|AF EF2< D2B|Ad dc de fg|
af bf af ef|de fa ef dB|A2 dB AF EF|(3DDD AD (3DDD BD|
(3DDD dD fD af|g2 eg fe dB|AF EF D2 A,2|

